dist/svgs/crypto-icons/icons/maid.svg

<?xml version="1.0" encoding="UTF-8" standalone="yes"?>
<svg xmlns="http://www.w3.org/2000/svg" xmlns:xlink="http://www.w3.org/1999/xlink" width="512px" height="512px" viewBox="0 0 384 384" version="1.1">
  <g id="surface1">
    <path style=" stroke:none;fill-rule:nonzero;fill:rgb(0%,0%,0%);fill-opacity:1;" d="M 224.289062 254.085938 L 224.25 202.03125 L 135.753906 150.894531 L 359.410156 25.09375 L 359.410156 25.054688 C 359.410156 25.054688 307.886719 -25.71875 232.292969 19.410156 C 170.382812 56.367188 66.660156 118.261719 31.101562 139.488281 Z M 224.289062 254.085938 "/>
    <path style=" stroke:none;fill-rule:nonzero;fill:rgb(0%,0%,0%);fill-opacity:1;" d="M 163.128906 151.035156 L 204.929688 175.082031 L 292.09375 123.734375 L 292.09375 384.027344 C 296.007812 382.003906 359.40625 348.292969 359.40625 294.339844 L 359.40625 40.621094 Z M 163.128906 151.035156 "/>
    <path style=" stroke:none;fill-rule:nonzero;fill:rgb(0%,0%,0%);fill-opacity:1;" d="M 278.550781 147.539062 L 237.738281 171.777344 L 237.84375 277.867188 L 18.601562 147.820312 C 18.160156 155.445312 15.816406 212.035156 43.867188 233.410156 C 69.484375 252.953125 231.09375 348.507812 278.550781 376.476562 Z M 278.550781 147.539062 "/>
  </g>
</svg>

<svg xmlns="http://www.w3.org/2000/svg" viewBox="0 0 384 384"><path d="M224.29 254.086l-.04-52.055-88.496-51.136L359.41 25.094v-.04s-51.523-50.773-127.117-5.644C170.383 56.367 66.66 118.262 31.102 139.488zm0 0"/><path d="M163.129 151.035l41.8 24.047 87.165-51.348v260.293c3.914-2.023 67.312-35.734 67.312-89.687V40.62zm0 0"/><path d="M278.55 147.54l-40.812 24.237.106 106.09L18.602 147.82c-.442 7.625-2.786 64.215 25.265 85.59 25.617 19.543 187.227 115.098 234.684 143.067zm0 0"/></svg>
